X:1
T:James Gibb editions
T:Hodie Christus natus est, SWV 315  - Schütz
T:#
%%score [ 1 2 ] 3
L:1/8
Q:1/4=96
M:4/4
K:C
V:1 treble nm="Soprano"
V:2 treble-8 nm="Tenor"
V:3 bass nm="Continuo"
V:1
"^Hodie Christus natus est, SWV 315""^Heinrich Schütz\n(1585-1672)" A8- | A4 B2 B2 | ^c4 d4 | %3
w: Ho\-|* di- e|Chri- stus|
 d4 ^c4 | d4 D4- | D4 D4 | E4 ^F4 | ^G4 A2 A2 | A4 ^G4 | A4 z2 A^G | ^FDdc BGG=F | E^CAG FDGF | %12
w: na- tus|est, ho\-|* di-|e Sal-|va- tor ap-|pa- ru-|it. Al- le-|lu- ja, Al- le- lu- ja, Al- le-|lu- ja, Al- le- lu- ja, Al- le-|
 E8 | D8 | z8 | z8 | z8 | z8 | A8- | A4 B2 B2 | ^c4 d4 | d4 ^c4 | d4 A4- | A4 A4 | A4 B4 | %25
w: lu-|ja.|||||ho\-|* di- e|Chri- stus|na- tus|est, ho\-|* di-|e Sal-|
 ^c4 d2 d2 | d4 ^c4 | d2 AG ^FDd=c | B4 A4 | z2 GF ECcB | AAdc BBed | (^c2 d4 c2) | !fermata!d8 || %33
w: va- tor ap-|pa- ru-|it. Al- le- lu- ja, Al- le-|lu- ja,|Al- le- lu- ja, Al- le-|lu- ja, Al- le- lu- ja, Al- le-|lu\- * *|ja.|
 z8 | z8 | z8 | z8 | z8 | d3 d d2 d2 | G4 A4 | (_BA AG/F/ G>F E/F/G/A/ | %41
w: |||||Ho- di- e in|ter- ra|ca\- * * * * * * * * * *|
 _Bc/d/ GA/B/ A>G F/G/A/=B/ | c/d/e/B/ c/B/c/A/ B)E (A2- | A2 ^G^F G3) G | A2 ee e2 e2 | A4 A4 | %46
w: |* * * * * * * * * nunt an\-|* * * * ge-|li, ho- di- e in|ter- ra|
 z4 (E/F/G/D/ E/D/E/C/ | D)D z2 (F/G/A/E/ F/E/F/D/ | EE (E/D/E/F/ G/F/G/E/ F/E/F/D/ | %49
w: ca\- * * * * * * *|* nunt, ca\- * * * * * * *|* nunt, ca\- * * * * * * * * * * *|
 EF) GF) E3 D | D8 | z8 | z8 | z8 | z E (^F2- F/D/E/F/ G2- | G/E/=F/G/ A4) GF | (E2 F4) E2 | %57
w: * * nunt * an- ge-|li,||||lae- tan\- * * * * *|* * * * * tur arch-|an\- * ge-|
 F2 AG FDdc | B4 A4 | z2 GF ECcB | AAdc BBed | (^c2 d4 c2) | !fermata!d8 || A6 A2 | A4 z AFA | %65
w: li, Al- le- lu- ja, Al- le-|lu- ja,|Al- leí- lu- ja, Al- le-|lu- ja, Al- le- lu- ja, Al- le-|lu\- * *|ja.|Ho- di-|e e- xul- tant|
 G2 E2 z GDG | F2 DF (G2 A2- | A2 GF G4) | A8 | z8 | z4 (F/G/A/B/ c/d/e/c/ | f2 ee dd d>^c | %72
w: ju- sti, e- xul- tant|ju- sti di- cen\- *||tes:||Glo\- * * * * * * *|* ri- a in ex- cel- sis|
 dd z2 z4 | (G/A/B/c/ d/e/f/d/ g2) ff | eedd ccBB | eedd cc z2 | d4 z2 _B2 | G2 G2 z2 A2 | G4 E4 | %79
w: De- o,|glo\- * * * * * * * * ri- a|in ex- cel- sis, in ex- cel- sis,|in ex- cel- sis De- o,|et in|ter- ra, in|ter- ra|
 D4 z4 | z2 F2 G2 A2- | A2 ^G^F GABG | A2 A2 z2 e2 | c4 A4 | ^G2 B2 ^c2 d2- | d2 ^cB cdec | %86
w: pax,|pax ho- mi\-|* ni- bus bo- nae vo- lun-|ta- tis, in|ter- ra|pax, pax ho- mi\-|* ni- bus bo- nae vo- lun-|
 d2 d2 z4 | z8 | z2 AG FDGF | E4 F4 | z2 ed cAdc | B4 A4 | z2 GF ECcB | AAdc BBed | ^c2 d4 c2) | %95
w: ta- tis,||Al- le- lu- ja, Al- le-|lu- ja,|Al- le- lu- ja, Al- le-|lu- ja,|Al- le- lu- ja, Al- le-|lu- ja, Al- le- lu- ja, Al- le|lu\- * *|
 d2 d4 c2 | (_B6 A2 | G8) | !fermata!^F8 |] %99
w: ja, Al- le-|lu\- *||ja.|
V:2
 z8 | z8 | z8 | z8 | z8 | z8 | z8 | z8 | z8 | A8- | A4 B2 B2 | ^c4 d4 | d4 ^c4 | d4 D4- | D4 D4 | %15
w: |||||||||Ho\-|* di- e|Chri- stus|na- tus|est, ho\-|* di-|
 E4 ^F4 | ^G4 A2 A2 | A4 ^G4 | A4 ^c4- | c4 d2 d2 | e4 f4 | e4 e4 | d8 | z4 z2 AG | ^FDdc BGG=F | %25
w: e Sal-|va- tor ap-|pa- ru-|it, ho\-|* di- e|Chri- stus|na- tus|est,|Al- le-|lu- ja, Al- le- lu- ja, Al- le-|
 E^CAG FDGF | E8 | D4 z4 | z2 ed cAfe | d4 c4 | z2 fe ddgf | e8 | !fermata!d8 || A3 A A2 A2 | %34
w: lu- ja, Al- le- lu- ja, Al- le-|lu-|ja,|Al- le- lu- ja, Al- le-|lu- ja,|Al- le- lu- ja, Al- le-|lu-|ja.|Ho- di- e in|
 D4 E4 | (FE ED/C/ D>E F/G/A/B/ | cd/e/ AB/c/ B>G A/B/c/d/ | e/f/g/d/ e/d/e/c/ d)G (c2- | %38
w: ter- ra|ca\- * * * * * * * * * *||* * * * * * * * * nunt an\-|
 c2 BA B3) B | c8 | z8 | z8 | z8 | e3 e e2 e2 | A4 A2 A2 | F4 F4 | (A/B/c/G/ A/G/A/F/ G)G z2 | %47
w: * * * * ge-|li,||||ho- di- e in|ter- ra, in|ter- ra|ca\- * * * * * * * * nunt,|
 (B/c/d/A/ B/A/B/G/ A)A z2 | (c/d/e/B/ c/B/c/A/ B/A/B/^c/ d/=c/d/B/ | ^c2) d2 d3 c | d4 z A (B2- | %51
w: ca\- * * * * * * * * nunt,|ca\- * * * * * * * * * * * * * * *|* nunt an- ge-|li, lae- tan\-|
 B/G/A/B/ c2- c/A/B/c/ d2- | d/B/c/d/ e4) dc | B6 B2 | A4 z4 | z8 | z8 | z8 | z2 ed cAfe | d4 c4 | %60
w: |* * * * * tur ar\--|chan- ge-|li,||||Al- le- lu- ja, Al- le-|lu- ja,|
 z2 fe ddgf | e8 | !fermata!d8 || c6 c2 | c8 | z cGc _B2 G2 | z dAd c2 AA | _B8 | A8 | %69
w: Al- le- lu- ja, Al- le-|lu-|ja.|Ho- di-|e|e- xul- tant ju- sti,|e- xul- tant ju- sti di-|cen-|tes:|
 (F/G/A/B/ c/d/e/c/ f2) ee | df f>e ff z2 | z8 | (D/E/F/G/ A/B/c/A/ d2) cc | %73
w: Glo\- * * * * * * * * ri- a|in ex- eel- sis De- o,||glo\- * * * * * * * * ri- a|
 BBAA G/A/B/c/ d/e/f/d/ | g2 ff eedd | ccBB cc z2 | _B4 z2 G2 | E2 E2 z2 F2 | E2 D4 ^C2 | D4 z4 | %80
w: in ex- cel- sis, glo\- * * * * * * *|* ri- a in ex- cel- sis,|in ex- cel- sis De- o,|et in|ter- ra, in|in ter- ra|pax,|
 z4 z2 e2 | d4 B4 | A2 c2 d2 e2- | e2 dc defd | e2 e2 z2 A2 | G4 E4 | D2 F2 G2 A2- | A2 GE FG E>D | %88
w: in|ter- ra|pax, pax ho- mi\-|* ni- bus bo- nae vo- lun-|ta- tis, in|ter- ra|pax, pax ho- mi\-|* ni- bus bo- nae vo- lun-|
 D2 D2 z4 | z2 AG FDdc | B4 A4 | z2 ed cAfe | d4 c4 | z2 fe ddgf | e8 | d8 | z2 d4 c2 | _B8 | %98
w: ta- tis,|Al- le- lu- ja, Al- le-|lu- ja,|Al- le- lu- ja, Al- le-|lu- ja,|Al- le- lu- ja, Al- le-|lu-|ja,|Al- le-|lu-|
 !fermata!A8 |] %99
w: ja.|
V:3
 D,6 E,2 | F,4 G,4 | A,4 D,4 | x4- x4 | D,8 | D,8 | C,4 D,4 | E,4 F,4 | x4- x4 | A,,8 | D,4 G,4 | %11
w: |||4|||||4|||
 A,4 _B,4 | G,4 A,4 | D,8 | D,8 | C,4 D,4 | E,4 A,,4 | x4- x4 | A,,8- | A,,8 | (x4- x4 | %21
w: ||||||4||||
 A,,4) A,,2 A,,2 | B,,4 D,4 | D,4 ^C,4 | D,4 G,,4 | A,,4 _B,,4 | G,,4 A,,4 | D,4 D,4 | E,4 F,4 | %29
w: 4 * *||||||||
 G,4 C,4 | D,4 G,4 | x2- x4 x2 | !fermata!D,8 || D,8 | D,4 ^C,4 | D,8 | A,,4 E,4 | C,4 G,2 E,2 | %38
w: ||||||||* * 6|
 x4- x4 | C,4 A,,4 | G,,8- | G,,4 D,4 | A,,4 E,2 D,2 | x4- x4 | A,,4 A,,2 A,2 | F,8 | F,4 C,4 | %47
w: 7|||||4||||
 G,4 D,4 | A,4 G,2 D,2 | A,2 G,2 x2- x2 | D,4 x2- x2 | x2- x2 x2- x2 | x2- x2 A,2 D,2 | x2- x4 x2 | %54
w: ||* * 4|* 5|5 5|5 * *||
 x2- x2 x2- x2 | x2- x2 D,4 | C,2 _B,,2 x2- x2 | F,,4 D,4 | E,4 F,4 | G,4 C,4 | D,4 G,4 | %61
w: 5 5|5 *|* * 4|||||
 x2- x4 x2 | !fermata!D,8 || F,,6 F,,2 | F,,8 | C,4 G,,4 | D,4 C,2 A,,2 | x4- x4 | A,,8 | %69
w: ||||||7||
 F,2 E,2 D,2 C,2 | _B,,2 C,2 F,,2 E,2 | D,2 C,2 _B,,G,, A,,2 | %72
w: * 6 * *|* * * 6||
 D,2 C,2 G,,/A,,/=B,,/C,/ D,/E,/F,/D,/ | G,2 F,F, E,2 D,2 | C,2 D,2 E,2 G,G,, | C,2 G,2 C,2 z2 | %76
w: |* 6 * * *|* * 6 * *||
 G,,4 z2 G,,2 | C,4 z2 F,,2 | x2- x2 x2- x2 | D,,4 z4 | z2 D,2 x2- x2 | D,4 E,4 | %82
w: ||6 4||* 5||
 A,,2 A,2 G,2 E,2 | x4- x4 | E,4 A,2 F,2 | x4- x4 | D,4 C,2 F,,G,, | A,,B,, C,2 D,G,, A,,2 | %88
w: |7|* * 6|7|||
 D,4 D,2 G,,2 | A,,4 D,4 | E,4 F,2 D,2 | E,4 F,4 | G,4 C,4 | D,4 G,4 | x2- x4 x2 | D,4 _B,,2 A,,2 | %96
w: ||||||||
 G,,8 | G,,8 | !fermata!D,8 |] %99
w: |||

